svg/u1f686.svg

<svg viewBox="0 0 128 128" xmlns="http://www.w3.org/2000/svg">
  <g>
    <g>
      <path d="M29.3,105.76c0,0-0.37,1.11-0.38,1.98s0.12,2.64,1.68,2.64c2.02,0,24.86-0.07,35.87,0 s31.28-0.14,32.7-0.22c1.42-0.07,1.03-3.22,0.94-4.3L29.3,105.76z" fill="#543529"/>
      <path d="M102.23,116.02l2.89,1.99c0,0,1.87,1.63,2.12,2.61c0.25,0.98-0.33,2.84-1.16,3.23L62.74,124 l-40.42-0.12c-0.63-0.16-1.39-0.77-1.58-1.89s0.43-2.37,0.82-3.15c0.39-0.78,8.43-2.81,8.43-2.81L102.23,116.02z" fill="#874D36"/>
      <path d="M25.89,113.94c-0.78,0.01-1.35,0.94-1.82,1.55c-1.22,1.57-1.99,2.56-2.5,3.35 c-0.7,1.09,0.7,2.03,1.95,2.03s83.39,0.12,83.59-0.41c0.27-0.7-1.33-3.09-2.65-5.29c-0.46-0.77-1.46-1.82-2.36-1.81L25.89,113.94z " fill="#B88956"/>
      <path d="M32.22,100.82l-2.78,4.53c-0.48,0.78,0.08,1.78,1,1.78l68.52-0.04c0.91,0,1.47-0.99,1.01-1.77 l-2.69-4.51H32.22z" fill="#A06841"/>
      <g>
        <g>
          <path d="M47.25,101.55l-8.15,22.39h-4.94l-2.83-5.39l9.04-19.45C40.37,99.09,47.7,100.1,47.25,101.55z" fill="#88857C"/>
          <path d="M28.81,123.97c0.12-0.42,8.45-17.94,8.45-17.94c0.52-1.09,4.91-0.6,4.2,1.46 s-5.74,16.44-5.74,16.44L28.81,123.97z" fill="#C8C9C6"/>
        </g>
        <g>
          <path d="M79.99,101.55l8.19,22.36l4.89-0.01l2.84-5.35l-9.04-19.45C86.88,99.09,79.54,100.1,79.99,101.55 z" fill="#88857C"/>
          <path d="M98.42,123.88c-0.12-0.42-8.47-17.91-8.47-17.91c-0.52-1.09-4.91-0.6-4.2,1.46 c0.72,2.06,5.76,16.47,5.76,16.47L98.42,123.88z" fill="#C8C9C6"/>
        </g>
      </g>
    </g>
    <path d="M100.2,98.08c0.14,1.71-0.9,3.24-2.36,3.48c-4.85,0.77-16.44,2.24-34.54,2.24 c-17.97,0-29.3-1.45-34.09-2.23c-1.48-0.24-2.51-1.8-2.35-3.53L26.84,80.9h73.38L100.2,98.08z" fill="#82AEC0"/>
    <path d="M26.84,80.9l0,6.06c0,0,17.38,0.9,36.68,0.9s36.69-1.04,36.69-1.04V80.9H26.84z" fill="#546E7A"/>
    <path d="M63.38,84.79l0.14-24.05l-37.7-7.16L25.16,77l0,5.59c0,0.89,0.69,1.62,1.57,1.67 C29.9,84.45,38.98,84.79,63.38,84.79z" fill="#E0E0E0"/>
    <g>
      <path d="M96.76,8.01C91.92,6.04,82.26,4,63.53,4S35.13,6.04,30.29,8.01C28.3,8.82,27,11.96,27,14.14 l-1.18,39.43l10.53,15.61l26.91,13.01c33.58,0,38.83-0.29,38.83-0.29l-2.05-67.76C100.05,11.96,98.75,8.82,96.76,8.01z" fill="#2167A1"/>
      <path d="M94.49,9.42c-4.53-1.84-13.44-3.68-30.96-3.68S37.09,7.58,32.57,9.42 c-1.86,0.76-3.08,3.03-3.08,5.07l0.16,24.39c0.03,5.42,3.57,10.2,8.74,11.83l25.86,8.75l24.82-8.67 c5.18-1.67,8.68-6.51,8.65-11.95l-0.16-24.25C97.56,12.55,96.35,10.18,94.49,9.42z" fill="#2686C6"/>
    </g>
    <g>
      <g>
        <polygon points="93.51,31.48 66.25,31.48 66.61,14.81 91.48,14.81 " fill="#BAE2FD"/>
        <path d="M91.64,12.95H67.06c-0.92,0-1.65,0.99-1.59,2.16l0.46,16.19c0.05,1.07,0.75,1.9,1.59,1.9h25.35 c1.22,0,2.12-1.44,1.86-2.96l-1.55-15.7C93.03,13.61,92.38,12.95,91.64,12.95z M69.23,15.72h20.45c0.73,0,1.36,0.63,1.54,1.53 l0.95,10.64c0.26,1.29-0.5,2.54-1.54,2.54H69.5c-0.83,0-1.52-0.82-1.58-1.88l-0.26-10.64C67.58,16.73,68.31,15.72,69.23,15.72z" fill="#37474F"/>
      </g>
      <g>
        <polygon points="34.49,31.48 61.75,31.48 61.39,14.81 36.52,14.81 " fill="#BAE2FD"/>
        <path d="M34.81,14.54l-1.55,15.7c-0.26,1.52,0.64,2.96,1.86,2.96h25.35c0.84,0,1.53-0.83,1.59-1.9 l0.46-16.19c0.06-1.17-0.67-2.16-1.59-2.16H36.36C35.62,12.95,34.97,13.61,34.81,14.54z M60.35,17.91l-0.26,10.64 c-0.06,1.06-0.75,1.88-1.58,1.88H37.36c-1.04,0-1.8-1.25-1.54-2.54l0.95-10.64c0.18-0.9,0.81-1.53,1.54-1.53h20.45 C59.69,15.72,60.42,16.73,60.35,17.91z" fill="#37474F"/>
      </g>
    </g>
    <g>
      <g>
        <path d="M84.01,43.89c-1.15-2.57-3.12-3.54-5.19-3.03c-2.07,0.51-3.14,2.55-2.83,4.66 c0.41,2.87,3.06,5.7,6.42,4.12C84.59,48.62,85.15,46.43,84.01,43.89z" fill="#01579B"/>
        <circle cx="79.73" cy="44.6" r="3.13" fill="#F44336"/>
      </g>
      <g>
        <path d="M43.99,43.89c1.15-2.57,3.12-3.54,5.19-3.03c2.07,0.51,3.14,2.55,2.83,4.66 c-0.41,2.87-3.06,5.7-6.42,4.12C43.41,48.62,42.85,46.43,43.99,43.89z" fill="#01579B"/>
        <circle cx="48.27" cy="44.6" r="3.13" fill="#F44336"/>
      </g>
    </g>
    <path d="M63.53,60.73l-37.7-7.16L25.16,77l0,5.59c0,0.89,0.69,1.62,1.57,1.67 c3.17,0.19,12.25,0.53,36.65,0.53c0.05,0,0.09,0,0.14,0c0,0,2.15-4.36,2.15-11.7S63.53,60.73,63.53,60.73z" fill="#E0E0E0"/>
    <path d="M63.53,60.73l37.7-7.16L101.89,77l0,5.59c0,0.89-0.69,1.62-1.57,1.67 c-3.17,0.19-12.25,0.53-36.65,0.53c-0.05,0-0.09,0-0.14,0V60.73z" fill="#BDBDBD"/>
    <path d="M25.16,82.59c0,0.89,0.69,1.62,1.57,1.67c3.17,0.19,12.25,0.53,36.65,0.53 c0.05,0,0.09,0,0.14,0l0,0v0c0.05,0,0.09,0,0.14,0c24.4,0,33.48-0.34,36.65-0.53c0.88-0.05,1.57-0.78,1.57-1.67l0-5.54H25.16 L25.16,82.59z" opacity="0.2" fill="#424242"/>
    <path d="M31.7,89.75c-1.38-0.14-2.57,0.95-2.57,2.34c0,3.12,0.05,6.52,2.21,7.19 c2.38,0.74,15.73,1.48,22.07,1.68c1.38,0.04,2.49-1.11,2.41-2.48l-0.3-5.1c-0.07-1.22-1.07-2.18-2.29-2.21 C45.36,91.04,36.12,90.2,31.7,89.75z" fill="#94D1E0"/>
    <g>
      <g>
        <circle cx="85.76" cy="66.23" r="5.88" fill="#757575"/>
        <circle cx="85.76" cy="66.82" r="4.32" fill="#FFFDE7"/>
      </g>
      <g>
        <circle cx="42.24" cy="66.23" r="5.88" fill="#9E9E9E"/>
        <circle cx="42.24" cy="66.82" r="4.32" fill="#FFFDE7"/>
      </g>
    </g>
  </g>
  <g>
    <polygon points="57.55,30.42 50.22,30.42 40.72,15.72 48.06,15.72 " fill="#FFFFFF"/>
    <polygon points="87.28,30.42 79.94,30.42 70.45,15.72 77.78,15.72 " fill="#FFFFFF"/>
  </g>
</svg>

<svg viewBox="0 0 128 128" xmlns="http://www.w3.org/2000/svg">
  <defs/>
  <path d="M29.3,105.76 C29.3,105.76 28.93,106.87 28.92,107.74 C28.91,108.61 29.04,110.38 30.6,110.38 C32.62,110.38 55.46,110.31 66.47,110.38 C77.48,110.45 97.75,110.24 99.17,110.16 C100.59,110.09 100.2,106.94 100.11,105.86 L29.3,105.76 Z" fill="#543529"/>
  <path d="M102.23,116.02 L105.12,118.01 C105.12,118.01 106.99,119.64 107.24,120.62 C107.49,121.6 106.91,123.46 106.08,123.85 L62.74,124 L22.32,123.88 C21.69,123.72 20.93,123.11 20.74,121.99 C20.55,120.87 21.17,119.62 21.56,118.84 C21.95,118.06 29.99,116.03 29.99,116.03 L102.23,116.02 Z" fill="#874D36"/>
  <path d="M25.89,113.94 C25.11,113.95 24.54,114.88 24.07,115.49 C22.85,117.06 22.08,118.05 21.57,118.84 C20.87,119.93 22.27,120.87 23.52,120.87 C24.77,120.87 106.91,120.99 107.11,120.46 C107.38,119.76 105.78,117.37 104.46,115.17 C104,114.4 103,113.35 102.1,113.36 L25.89,113.94 Z" fill="#B88956"/>
  <path d="M32.22,100.82 L29.44,105.35 C28.96,106.13 29.52,107.13 30.44,107.13 L98.96,107.09 C99.87,107.09 100.43,106.1 99.97,105.32 L97.28,100.81 L32.22,100.81 Z" fill="#A06841"/>
  <path d="M47.25,101.55 L39.1,123.94 L34.16,123.94 L31.33,118.55 L40.37,99.1 C40.37,99.09 47.7,100.1 47.25,101.55 Z" fill="#88857C"/>
  <path d="M28.81,123.97 C28.93,123.55 37.26,106.03 37.26,106.03 C37.78,104.94 42.17,105.43 41.46,107.49 C40.75,109.55 35.72,123.93 35.72,123.93 L28.81,123.97 Z" fill="#C8C9C6"/>
  <path d="M79.99,101.55 L88.18,123.91 L93.07,123.9 L95.91,118.55 L86.87,99.1 C86.88,99.09 79.54,100.1 79.99,101.55 Z" fill="#88857C"/>
  <path d="M98.42,123.88 C98.3,123.46 89.95,105.97 89.95,105.97 C89.43,104.88 85.04,105.37 85.75,107.43 C86.47,109.49 91.51,123.9 91.51,123.9 L98.42,123.88 Z" fill="#C8C9C6"/>
  <path d="M100.2,98.08 C100.34,99.79 99.3,101.32 97.84,101.56 C92.99,102.33 81.4,103.8 63.3,103.8 C45.33,103.8 34,102.35 29.21,101.57 C27.73,101.33 26.7,99.77 26.86,98.04 L26.84,80.9 L100.22,80.9 L100.2,98.08 Z" fill="#82AEC0"/>
  <path d="M26.84,80.9 L26.84,86.96 C26.84,86.96 44.22,87.86 63.52,87.86 C82.82,87.86 100.21,86.82 100.21,86.82 L100.21,80.9 L26.84,80.9 Z" fill="#546E7A"/>
  <path d="M63.38,84.79 L63.52,60.74 L25.82,53.58 L25.16,77 L25.16,82.59 C25.16,83.48 25.85,84.21 26.73,84.26 C29.9,84.45 38.98,84.79 63.38,84.79 Z" fill="#E0E0E0"/>
  <path d="M96.76,8.01 C91.92,6.04 82.26,4 63.53,4 C44.8,4 35.13,6.04 30.29,8.01 C28.3,8.82 27,11.96 27,14.14 L25.82,53.57 L36.35,69.18 L63.26,82.19 C96.84,82.19 102.09,81.9 102.09,81.9 L100.04,14.14 C100.05,11.96 98.75,8.82 96.76,8.01 Z" fill="#2167A1"/>
  <path d="M94.49,9.42 C89.96,7.58 81.05,5.74 63.53,5.74 C46.01,5.74 37.09,7.58 32.57,9.42 C30.71,10.18 29.49,12.45 29.49,14.49 L29.65,38.88 C29.68,44.3 33.22,49.08 38.39,50.71 L64.25,59.46 L89.07,50.79 C94.25,49.12 97.75,44.28 97.72,38.84 L97.56,14.59 C97.56,12.55 96.35,10.18 94.49,9.42 Z" fill="#2686C6"/>
  <path d="M93.51,31.48 L66.25,31.48 L66.61,14.81 L91.48,14.81 Z" fill="#BAE2FD"/>
  <path d="M91.64,12.95 L67.06,12.95 C66.14,12.95 65.41,13.94 65.47,15.11 L65.93,31.3 C65.98,32.37 66.68,33.2 67.52,33.2 L92.87,33.2 C94.09,33.2 94.99,31.76 94.73,30.24 L93.18,14.54 C93.03,13.61 92.38,12.95 91.64,12.95 Z M69.23,15.72 L89.68,15.72 C90.41,15.72 91.04,16.35 91.22,17.25 L92.17,27.89 C92.43,29.18 91.67,30.43 90.63,30.43 L69.5,30.43 C68.67,30.43 67.98,29.61 67.92,28.55 L67.66,17.91 C67.58,16.73 68.31,15.72 69.23,15.72 Z" fill="#37474F"/>
  <path d="M34.49,31.48 L61.75,31.48 L61.39,14.81 L36.52,14.81 Z" fill="#BAE2FD"/>
  <path d="M34.81,14.54 L33.26,30.24 C33,31.76 33.9,33.2 35.12,33.2 L60.47,33.2 C61.31,33.2 62,32.37 62.06,31.3 L62.52,15.11 C62.58,13.94 61.85,12.95 60.93,12.95 L36.36,12.95 C35.62,12.95 34.97,13.61 34.81,14.54 Z M60.35,17.91 L60.09,28.55 C60.03,29.61 59.34,30.43 58.51,30.43 L37.36,30.43 C36.32,30.43 35.56,29.18 35.82,27.89 L36.77,17.25 C36.95,16.35 37.58,15.72 38.31,15.72 L58.76,15.72 C59.69,15.72 60.42,16.73 60.35,17.91 Z" fill="#37474F"/>
  <path d="M84.01,43.89 C82.86,41.32 80.89,40.35 78.82,40.86 C76.75,41.37 75.68,43.41 75.99,45.52 C76.4,48.39 79.05,51.22 82.41,49.64 C84.59,48.62 85.15,46.43 84.01,43.89 Z" fill="#01579B"/>
  <path d="M82.86,44.6 A3.13 3.13 0 1 1 76.6,44.6 A3.13 3.13 0 1 1 82.86,44.6 Z" fill="#F44336"/>
  <path d="M43.99,43.89 C45.14,41.32 47.11,40.35 49.18,40.86 C51.25,41.37 52.32,43.41 52.01,45.52 C51.6,48.39 48.95,51.22 45.59,49.64 C43.41,48.62 42.85,46.43 43.99,43.89 Z" fill="#01579B"/>
  <path d="M51.4,44.6 A3.13 3.13 0 1 1 45.14,44.6 A3.13 3.13 0 1 1 51.4,44.6 Z" fill="#F44336"/>
  <path d="M63.53,60.73 L25.83,53.57 L25.16,77 L25.16,82.59 C25.16,83.48 25.85,84.21 26.73,84.26 C29.9,84.45 38.98,84.79 63.38,84.79 C63.43,84.79 63.47,84.79 63.52,84.79 C63.52,84.79 65.67,80.43 65.67,73.09 C65.67,65.75 63.53,60.73 63.53,60.73 Z" fill="#E0E0E0"/>
  <path d="M63.53,60.73 L101.23,53.57 L101.89,77 L101.89,82.59 C101.89,83.48 101.2,84.21 100.32,84.26 C97.15,84.45 88.07,84.79 63.67,84.79 C63.62,84.79 63.58,84.79 63.53,84.79 L63.53,60.73 Z" fill="#BDBDBD"/>
  <path d="M25.16,82.59 C25.16,83.48 25.85,84.21 26.73,84.26 C29.9,84.45 38.98,84.79 63.38,84.79 C63.43,84.79 63.47,84.79 63.52,84.79 L63.52,84.79 L63.52,84.79 C63.57,84.79 63.61,84.79 63.66,84.79 C88.06,84.79 97.14,84.45 100.31,84.26 C101.19,84.21 101.88,83.48 101.88,82.59 L101.88,77.05 L25.16,77.05 L25.16,82.59 Z" fill="#424242" opacity="0.2"/>
  <path d="M31.7,89.75 C30.32,89.61 29.13,90.7 29.13,92.09 C29.13,95.21 29.18,98.61 31.34,99.28 C33.72,100.02 47.07,100.76 53.41,100.96 C54.79,101 55.9,99.85 55.82,98.48 L55.52,93.38 C55.45,92.16 54.45,91.2 53.23,91.17 C45.36,91.04 36.12,90.2 31.7,89.75 Z" fill="#94D1E0"/>
  <path d="M91.64,66.23 A5.88 5.88 0 1 1 79.88,66.23 A5.88 5.88 0 1 1 91.64,66.23 Z" fill="#757575"/>
  <path d="M90.08,66.82 A4.32 4.32 0 1 1 81.44,66.82 A4.32 4.32 0 1 1 90.08,66.82 Z" fill="#FFFDE7"/>
  <path d="M48.12,66.23 A5.88 5.88 0 1 1 36.36,66.23 A5.88 5.88 0 1 1 48.12,66.23 Z" fill="#9E9E9E"/>
  <path d="M46.56,66.82 A4.32 4.32 0 1 1 37.92,66.82 A4.32 4.32 0 1 1 46.56,66.82 Z" fill="#FFFDE7"/>
  <path d="M57.55,30.42 L50.22,30.42 L40.72,15.72 L48.06,15.72 Z" fill="#FFFFFF"/>
  <path d="M87.28,30.42 L79.94,30.42 L70.45,15.72 L77.78,15.72 Z" fill="#FFFFFF"/>
</svg>
